icons/white/aidungeon.svg

<?xml version="1.0" encoding="UTF-8"?><svg id="a" xmlns="http://www.w3.org/2000/svg" viewBox="0 0 48 48"><defs><style>.b{fill:none;stroke:#fff;stroke-linecap:round;stroke-linejoin:round;}</style></defs><path class="b" d="M16.5451,22.1356h2.733"/><path class="b" d="M16.5451,13.0197h2.733"/><path class="b" d="M17.9116,13.0197v9.1073"/><path class="b" d="M13.0077,19.0566h-3.8721"/><path class="b" d="M14.0369,22.1356l-2.9605-9.1073-3.0747,9.1073"/><path class="b" d="M9.4807,34.9768h-1.4807v-9.1073h1.4807c2.5056,0,4.5554,2.0498,4.5554,4.5554s-2.0498,4.5554-4.5554,4.5554v-.0035Z"/><path class="b" d="M28.1605,31.8978h3.0747c0,1.7082-1.3665,3.0747-3.0747,3.0747s-3.0747-1.3665-3.0747-3.0747v-2.9605c0-1.7082,1.3665-3.0747,3.0747-3.0747s3.0747,1.3665,3.0747,3.0747"/><path class="b" d="M33.9639,34.9768v-9.1073l6.0361,9.1073v-9.1073"/><path class="b" d="M16.5451,34.9768v-9.1073l6.0361,9.1073v-9.1073"/><path class="b" d="M43.5,35.5V12.5c0-2.2091-1.7909-4-4-4H8.5c-2.2091,0-4,1.7909-4,4v23c0,2.2091,1.7909,4,4,4h31c2.2091,0,4-1.7909,4-4Z"/></svg>

<svg xmlns="http://www.w3.org/2000/svg" viewBox="0 0 48 48"><defs><style>.a{fill:none;stroke:#fff;stroke-linecap:round;stroke-linejoin:round;}</style></defs><path class="a" d="M16.5451,22.1356h2.733"/><path class="a" d="M16.5451,13.02h2.733"/><path class="a" d="M17.9116,13.02V22.127"/><path class="a" d="M13.0077,19.0566H9.1356"/><path class="a" d="M14.0369,22.1356l-2.96-9.1073L8.0017,22.1356"/><path class="a" d="M9.4807,34.9768H8V25.87H9.4807a4.5554,4.5554,0,1,1,0,9.1107Z"/><path class="a" d="M28.1605,31.8978h3.0747a3.0747,3.0747,0,1,1-6.1493,0v-2.96a3.0747,3.0747,0,0,1,6.1493,0"/><path class="a" d="M33.9639,34.9768V25.87L40,34.9768V25.87"/><path class="a" d="M16.5451,34.9768V25.87l6.0361,9.1072V25.87"/><path class="a" d="M43.5,37.5v-27a2,2,0,0,0-2-2H6.5a2,2,0,0,0-2,2v27a2,2,0,0,0,2,2h35A2,2,0,0,0,43.5,37.5Z"/></svg>
